;FLAVOR:Marlin
;TIME:686
;Filament used: 1.52109m
;Layer height: 0.3
;MINX:76.593
;MINY:84.603
;MINZ:0.2
;MAXX:117.407
;MAXY:125.394
;MAXZ:6.275
;Generated with Cura_SteamEngine 4.1.0
M140 S60
M105
M190 S60
M104 S215
M105
M109 S215
M82 ;absolute extrusion mode
G21 ;metric values
G90 ;absolute positioning
M82 ;set extruder to absolute mode
M107 ;start with the fan off
G28 X0 Y0 ;move X/Y to min endstops
G28 Z0 ;move Z to min endstops
G1 Z15.0 F170 ;move the platform down 15mm
G92 E0 ;zero the extruded length
G1 F200 E3 ;extrude 3mm of feed stock
G92 E0 ;zero the extruded length again
G1 F170
M117 Printing...
G5
G92 E0
G92 E0
G1 F2400 E-6
;LAYER_COUNT:21
;LAYER:0
M106 S255
M204 S3000
M205 X10 Y10
G0 F5100 X79.693 Y87.501 Z0.2
M204 S1800
M205 X8 Y8
;TYPE:SKIRT
G1 F2400 E0
G1 X79.968 Y87.254 E0.01721
G1 X80.264 Y87.003 E0.03528
G1 X80.421 Y86.874 E0.04475
G1 X80.694 Y86.657 E0.06098
G1 X81.495 Y86.114 E0.10604
G1 X81.797 Y85.941 E0.12225
G1 X82.047 Y85.805 E0.1355
G1 X82.41 Y85.618 E0.15452
G1 X83.353 Y85.224 E0.2021
G1 X83.662 Y85.123 E0.21724
G1 X83.862 Y85.061 E0.22699
G1 X84.264 Y84.944 E0.24649
G1 X85.311 Y84.732 E0.29623
G1 X85.68 Y84.689 E0.31353
G1 X85.885 Y84.668 E0.32312
G1 X86.266 Y84.636 E0.34093
G1 X86.619 Y84.617 E0.35739
G1 X86.933 Y84.608 E0.37202
G1 X87.112 Y84.605 E0.38035
G1 X90.457 Y84.603 E0.53611
G1 X90.551 Y84.604 E0.54049
G1 X91.192 Y84.613 E0.57034
G1 X91.374 Y84.618 E0.57881
G1 X92.384 Y84.661 E0.62589
G1 X92.483 Y84.666 E0.6305
G1 X92.89 Y84.69 E0.64949
G1 X95.532 Y84.768 E0.77256
G1 X98.177 Y84.773 E0.89573
G1 X100.884 Y84.701 E1.02182
G1 X102.406 Y84.627 E1.09277
G1 X102.493 Y84.623 E1.09683
G1 X102.892 Y84.609 E1.11542
G1 X103.112 Y84.605 E1.12567
G1 X106.457 Y84.603 E1.28142
G1 X106.555 Y84.604 E1.28599
G1 X107.169 Y84.613 E1.31458
G1 X107.534 Y84.628 E1.33159
G1 X108.049 Y84.665 E1.35563
G1 X108.235 Y84.682 E1.36433
G1 X108.541 Y84.713 E1.37865
G1 X109.248 Y84.824 E1.41198
G1 X109.636 Y84.921 E1.4306
G1 X110.174 Y85.073 E1.45663
G1 X110.377 Y85.134 E1.4665
G1 X110.581 Y85.199 E1.47647
G1 X111.544 Y85.595 E1.52496
G1 X111.858 Y85.755 E1.54137
G1 X112.048 Y85.856 E1.55138
G1 X112.399 Y86.05 E1.57006
G1 X113.28 Y86.637 E1.61935
G1 X113.57 Y86.867 E1.63659
G1 X113.718 Y86.988 E1.64549
G1 X113.992 Y87.219 E1.66218
G1 X114.703 Y87.92 E1.70867
G1 X114.931 Y88.183 E1.72488
G1 X115.093 Y88.377 E1.73665
G1 X115.345 Y88.692 E1.75543
G1 X115.932 Y89.565 E1.80442
G1 X116.106 Y89.876 E1.82101
G1 X116.208 Y90.066 E1.83105
G1 X116.385 Y90.409 E1.84902
G1 X116.751 Y91.265 E1.89237
G1 X116.842 Y91.53 E1.90542
G1 X116.938 Y91.833 E1.92022
G1 X117.068 Y92.283 E1.94203
G1 X117.274 Y93.3 E1.99035
G1 X117.317 Y93.66 E2.00723
G1 X117.337 Y93.856 E2.01641
G1 X117.37 Y94.23 E2.03389
G1 X117.392 Y94.586 E2.0505
G1 X117.403 Y94.926 E2.06634
G1 X117.406 Y95.123 E2.07551
G1 X117.407 Y95.788 E2.10648
G1 X117.407 Y114.171 E2.96247
G1 X117.406 Y114.271 E2.96712
G1 X117.388 Y115.42 E3.02063
G1 X117.383 Y115.598 E3.02892
G1 X117.373 Y115.828 E3.03964
G1 X117.297 Y116.572 E3.07447
G1 X117.264 Y116.776 E3.08409
G1 X117.207 Y117.082 E3.09858
G1 X117.095 Y117.61 E3.12372
G1 X116.817 Y118.554 E3.16954
G1 X116.716 Y118.82 E3.18279
G1 X116.623 Y119.051 E3.19438
G1 X116.459 Y119.437 E3.21391
G1 X115.983 Y120.347 E3.26173
G1 X115.746 Y120.723 E3.28243
G1 X115.604 Y120.938 E3.29443
G1 X115.412 Y121.217 E3.3102
G1 X114.765 Y122.012 E3.35792
G1 X114.546 Y122.241 E3.37268
G1 X114.387 Y122.402 E3.38322
G1 X114.075 Y122.706 E3.4035
G1 X113.248 Y123.387 E3.45338
G1 X112.95 Y123.593 E3.47025
G1 X112.797 Y123.695 E3.47882
G1 X112.486 Y123.897 E3.49608
G1 X111.589 Y124.383 E3.54359
G1 X111.277 Y124.521 E3.55947
G1 X111.068 Y124.609 E3.57003
G1 X110.696 Y124.758 E3.58869
G1 X109.725 Y125.06 E3.63604
G1 X109.406 Y125.132 E3.65127
G1 X109.156 Y125.183 E3.66315
G1 X108.738 Y125.26 E3.68294
G1 X107.73 Y125.364 E3.73013
G1 X107.137 Y125.378 E3.75775
G1 X107.012 Y125.38 E3.76357
G1 X103.606 Y125.394 E3.92217
G1 X103.516 Y125.394 E3.92636
G1 X102.813 Y125.387 E3.9591
G1 X102.635 Y125.382 E3.96739
G1 X101.974 Y125.357 E3.99819
G1 X101.855 Y125.352 E4.00373
G1 X101.055 Y125.307 E4.04105
G1 X98.38 Y125.232 E4.16565
G1 X95.736 Y125.232 E4.28877
G1 X93.097 Y125.307 E4.4117
G1 X91.721 Y125.366 E4.47583
G1 X91.56 Y125.371 E4.48333
G1 X91.097 Y125.379 E4.5049
G1 X91.012 Y125.38 E4.50885
G1 X87.606 Y125.394 E4.66745
G1 X87.517 Y125.394 E4.6716
G1 X86.905 Y125.388 E4.7001
G1 X86.515 Y125.372 E4.71827
G1 X85.881 Y125.327 E4.74787
G1 X85.697 Y125.311 E4.75647
G1 X85.467 Y125.288 E4.76723
G1 X84.761 Y125.177 E4.80051
G1 X84.364 Y125.079 E4.81955
G1 X83.826 Y124.927 E4.84558
G1 X83.623 Y124.866 E4.85545
G1 X83.419 Y124.801 E4.86542
G1 X82.456 Y124.405 E4.91391
G1 X82.142 Y124.245 E4.93032
G1 X81.945 Y124.141 E4.94069
G1 X81.595 Y123.947 E4.95932
G1 X80.729 Y123.37 E5.00778
G1 X80.438 Y123.14 E5.02505
G1 X80.282 Y123.012 E5.03445
G1 X80.008 Y122.781 E5.05113
G1 X79.29 Y122.072 E5.09812
G1 X79.055 Y121.8 E5.11486
G1 X78.899 Y121.612 E5.12623
G1 X78.648 Y121.298 E5.14495
G1 X78.06 Y120.424 E5.194
G1 X77.889 Y120.118 E5.21032
G1 X77.778 Y119.91 E5.2213
G1 X77.598 Y119.558 E5.23971
G1 X77.229 Y118.682 E5.28397
G1 X77.144 Y118.429 E5.2964
G1 X77.067 Y118.181 E5.30849
G1 X76.935 Y117.728 E5.33046
G1 X76.773 Y117.032 E5.36374
G1 X76.721 Y116.668 E5.38086
G1 X76.68 Y116.311 E5.39759
G1 X76.663 Y116.144 E5.40541
G1 X76.63 Y115.77 E5.42289
G1 X76.608 Y115.418 E5.43931
G1 X76.597 Y115.084 E5.45487
G1 X76.594 Y114.873 E5.4647
G1 X76.593 Y95.491 E6.36721
G1 X76.594 Y95.39 E6.37191
G1 X76.602 Y94.885 E6.39543
G1 X76.619 Y94.5 E6.41337
G1 X76.679 Y93.712 E6.45017
G1 X76.758 Y93.089 E6.47941
G1 X76.793 Y92.89 E6.48882
G1 X76.946 Y92.227 E6.52051
G1 X77.014 Y91.991 E6.53194
G1 X77.063 Y91.828 E6.53987
G1 X77.187 Y91.437 E6.55897
G1 X77.579 Y90.479 E6.60717
G1 X77.728 Y90.185 E6.62251
G1 X77.823 Y90.006 E6.63195
G1 X78.02 Y89.646 E6.65106
G1 X78.591 Y88.778 E6.69944
G1 X78.809 Y88.499 E6.71592
G1 X78.949 Y88.326 E6.72629
G1 X79.204 Y88.022 E6.74476
G1 X79.693 Y87.501 E6.77804
M204 S3000
M205 X10 Y10
G0 F5100 X80.33 Y87.681
M204 S1800
M205 X8 Y8
G1 F2400 X80.626 Y87.43 E6.79611
G1 X80.769 Y87.312 E6.80474
G1 X81.042 Y87.095 E6.82098
G1 X81.773 Y86.6 E6.86209
G1 X82.075 Y86.427 E6.87829
G1 X82.304 Y86.302 E6.89044
G1 X82.667 Y86.115 E6.90946
G1 X83.527 Y85.756 E6.95285
G1 X83.836 Y85.655 E6.96799
G1 X84.018 Y85.599 E6.97685
G1 X84.42 Y85.482 E6.99635
G1 X85.376 Y85.288 E7.04177
G1 X85.745 Y85.245 E7.05907
G1 X85.932 Y85.226 E7.06782
G1 X86.313 Y85.194 E7.08563
G1 X86.635 Y85.176 E7.10064
G1 X86.949 Y85.167 E7.11527
G1 X87.113 Y85.165 E7.12291
G1 X90.458 Y85.163 E7.27866
G1 X90.543 Y85.164 E7.28262
G1 X91.184 Y85.173 E7.31247
G1 X91.35 Y85.177 E7.32021
G1 X92.36 Y85.22 E7.36728
G1 X92.451 Y85.225 E7.37152
G1 X92.877 Y85.25 E7.39139
G1 X95.514 Y85.328 E7.51424
G1 X98.191 Y85.333 E7.63889
G1 X100.88 Y85.262 E7.76414
G1 X102.433 Y85.186 E7.83654
G1 X102.512 Y85.183 E7.84022
G1 X102.911 Y85.169 E7.85882
G1 X103.113 Y85.165 E7.86822
G1 X106.458 Y85.163 E8.02398
G1 X106.547 Y85.164 E8.02812
G1 X107.161 Y85.173 E8.05672
G1 X107.493 Y85.187 E8.07219
G1 X108.008 Y85.224 E8.09623
G1 X108.179 Y85.239 E8.10423
G1 X108.485 Y85.27 E8.11855
G1 X109.484 Y85.46 E8.1659
G1 X110.022 Y85.612 E8.19193
G1 X110.207 Y85.668 E8.20093
G1 X110.411 Y85.733 E8.2109
G1 X111.289 Y86.094 E8.25511
G1 X111.603 Y86.254 E8.27152
G1 X111.777 Y86.346 E8.28068
G1 X112.128 Y86.54 E8.29936
G1 X112.932 Y87.075 E8.34432
G1 X113.222 Y87.305 E8.36156
G1 X113.357 Y87.416 E8.3697
G1 X113.631 Y87.647 E8.38638
G1 X114.28 Y88.287 E8.42883
G1 X114.508 Y88.55 E8.44504
G1 X114.655 Y88.727 E8.45575
G1 X114.907 Y89.042 E8.47453
G1 X115.444 Y89.839 E8.51928
G1 X115.618 Y90.15 E8.53588
G1 X115.711 Y90.323 E8.54502
G1 X115.888 Y90.666 E8.56299
G1 X116.221 Y91.447 E8.60253
G1 X116.312 Y91.712 E8.61558
G1 X116.4 Y91.988 E8.62906
G1 X116.53 Y92.438 E8.65088
G1 X116.718 Y93.366 E8.69496
G1 X116.761 Y93.726 E8.71185
G1 X116.779 Y93.906 E8.72027
G1 X116.812 Y94.28 E8.73775
G1 X116.832 Y94.604 E8.75287
G1 X116.843 Y94.944 E8.76871
G1 X116.846 Y95.124 E8.77709
G1 X116.847 Y95.789 E8.80806
G1 X116.847 Y114.171 E9.664
G1 X116.846 Y114.262 E9.66824
G1 X116.828 Y115.411 E9.72175
G1 X116.823 Y115.574 E9.72934
G1 X116.813 Y115.804 E9.74006
G1 X116.744 Y116.483 E9.77184
G1 X116.711 Y116.687 E9.78146
G1 X116.659 Y116.966 E9.79468
G1 X116.547 Y117.494 E9.81981
G1 X116.294 Y118.355 E9.8616
G1 X116.193 Y118.621 E9.87485
G1 X116.108 Y118.832 E9.88544
G1 X115.944 Y119.218 E9.90497
G1 X115.509 Y120.048 E9.9486
G1 X115.272 Y120.424 E9.9693
G1 X115.143 Y120.621 E9.98026
G1 X114.951 Y120.9 E9.99603
G1 X114.361 Y121.625 E10.03956
G1 X114.142 Y121.854 E10.05431
G1 X113.997 Y122.001 E10.06393
G1 X113.685 Y122.305 E10.08421
G1 X112.93 Y122.926 E10.12973
G1 X112.632 Y123.132 E10.1466
G1 X112.492 Y123.226 E10.15445
G1 X112.181 Y123.428 E10.17172
G1 X111.362 Y123.871 E10.21508
G1 X111.05 Y124.009 E10.23096
G1 X110.859 Y124.089 E10.24061
G1 X110.487 Y124.238 E10.25927
G1 X109.602 Y124.514 E10.30243
G1 X109.283 Y124.586 E10.31766
G1 X109.055 Y124.632 E10.32849
G1 X108.637 Y124.709 E10.34828
G1 X107.717 Y124.804 E10.39135
G1 X107.124 Y124.818 E10.41897
G1 X107.01 Y124.82 E10.42428
G1 X103.604 Y124.834 E10.58288
G1 X103.522 Y124.834 E10.58669
G1 X102.819 Y124.827 E10.61943
G1 X102.656 Y124.823 E10.62702
G1 X101.995 Y124.798 E10.65782
G1 X101.886 Y124.793 E10.66291
G1 X101.066 Y124.747 E10.70115
G1 X98.396 Y124.672 E10.82552
G1 X95.755 Y124.672 E10.9485
G1 X93.057 Y124.749 E11.07418
G1 X91.697 Y124.807 E11.13757
G1 X91.55 Y124.811 E11.14441
G1 X91.087 Y124.819 E11.16598
G1 X91.01 Y124.82 E11.16956
G1 X87.604 Y124.834 E11.32816
G1 X87.523 Y124.834 E11.33193
G1 X86.911 Y124.828 E11.36043
G1 X86.555 Y124.813 E11.37702
G1 X85.921 Y124.768 E11.40662
G1 X85.753 Y124.754 E11.41447
G1 X85.523 Y124.731 E11.42523
G1 X84.848 Y124.623 E11.45706
G1 X84.516 Y124.54 E11.473
G1 X83.978 Y124.388 E11.49903
G1 X83.793 Y124.332 E11.50803
G1 X83.589 Y124.267 E11.518
G1 X82.711 Y123.906 E11.5622
G1 X82.397 Y123.746 E11.57861
G1 X82.217 Y123.651 E11.58809
G1 X81.867 Y123.457 E11.60672
G1 X81.077 Y122.931 E11.65092
G1 X80.786 Y122.701 E11.66819
G1 X80.643 Y122.584 E11.67679
G1 X80.369 Y122.353 E11.69348
G1 X79.714 Y121.706 E11.73635
G1 X79.479 Y121.434 E11.75309
G1 X79.336 Y121.262 E11.7635
G1 X79.085 Y120.948 E11.78222
G1 X78.549 Y120.151 E11.82695
G1 X78.378 Y119.845 E11.84327
G1 X78.276 Y119.655 E11.85331
G1 X78.096 Y119.303 E11.87172
G1 X77.76 Y118.504 E11.91208
G1 X77.675 Y118.251 E11.92451
G1 X77.604 Y118.025 E11.93554
G1 X77.472 Y117.572 E11.95751
G1 X77.277 Y116.604 E12.00349
G1 X77.236 Y116.247 E12.02022
G1 X77.221 Y116.094 E12.02738
G1 X77.188 Y115.72 E12.04486
G1 X77.168 Y115.399 E12.05984
G1 X77.157 Y115.065 E12.0754
G1 X77.154 Y114.873 E12.08434
G1 X77.153 Y95.491 E12.98685
G1 X77.154 Y95.398 E12.99118
G1 X77.162 Y94.893 E13.0147
G1 X77.178 Y94.543 E13.03101
G1 X77.238 Y93.755 E13.06781
G1 X77.309 Y93.186 E13.09451
G1 X77.344 Y92.987 E13.10392
G1 X77.484 Y92.382 E13.13283
G1 X77.552 Y92.146 E13.14427
G1 X77.597 Y91.998 E13.15147
G1 X77.721 Y91.607 E13.17057
G1 X78.079 Y90.732 E13.2146
G1 X78.228 Y90.438 E13.22994
G1 X78.314 Y90.275 E13.23853
G1 X78.511 Y89.915 E13.25763
G1 X79.032 Y89.122 E13.30182
G1 X79.25 Y88.843 E13.3183
G1 X79.378 Y88.686 E13.32774
G1 X79.633 Y88.382 E13.34621
G1 X80.33 Y87.681 E13.39224
M204 S3000
M205 X10 Y10
G0 F5100 X80.692 Y88.108
M204 S1800
M205 X8 Y8
G1 F2400 X80.988 Y87.857 E13.41031
G1 X81.118 Y87.751 E13.41812
G1 X81.391 Y87.534 E13.43436
G1 X82.051 Y87.085 E13.47153
G1 X82.353 Y86.912 E13.48774
G1 X82.56 Y86.8 E13.4987
G1 X82.923 Y86.613 E13.51771
G1 X83.701 Y86.288 E13.55697
G1 X84.01 Y86.187 E13.57211
G1 X84.175 Y86.136 E13.58015
G1 X84.577 Y86.019 E13.59965
G1 X85.441 Y85.844 E13.6407
G1 X85.81 Y85.801 E13.65799
G1 X85.979 Y85.785 E13.6659
G1 X86.36 Y85.753 E13.6837
G1 X86.651 Y85.736 E13.69728
G1 X86.965 Y85.727 E13.7119
G1 X87.113 Y85.725 E13.71879
G1 X90.458 Y85.723 E13.87455
G1 X90.535 Y85.724 E13.87814
G1 X91.176 Y85.733 E13.90799
G1 X91.327 Y85.737 E13.91502
G1 X92.337 Y85.78 E13.96209
G1 X92.418 Y85.784 E13.96587
G1 X92.826 Y85.808 E13.9849
G1 X95.533 Y85.888 E14.11101
G1 X98.205 Y85.893 E14.23543
G1 X100.877 Y85.822 E14.35989
G1 X102.46 Y85.745 E14.43369
G1 X102.532 Y85.742 E14.43704
G1 X102.931 Y85.728 E14.45563
G1 X103.113 Y85.725 E14.46411
G1 X106.458 Y85.723 E14.61987
G1 X106.538 Y85.724 E14.62359
G1 X107.152 Y85.733 E14.65219
G1 X107.453 Y85.746 E14.66621
G1 X107.968 Y85.783 E14.69026
G1 X108.122 Y85.796 E14.69745
G1 X108.428 Y85.827 E14.71177
G1 X109.332 Y85.999 E14.75462
G1 X109.87 Y86.151 E14.78066
G1 X110.037 Y86.201 E14.78877
G1 X110.241 Y86.266 E14.79874
G1 X111.035 Y86.593 E14.83873
G1 X111.349 Y86.753 E14.85514
G1 X111.506 Y86.836 E14.86341
G1 X111.857 Y87.03 E14.88208
G1 X112.584 Y87.514 E14.92275
G1 X112.874 Y87.744 E14.93998
G1 X112.996 Y87.844 E14.94733
G1 X113.27 Y88.075 E14.96402
G1 X113.857 Y88.653 E15.00238
G1 X114.085 Y88.916 E15.01858
G1 X114.218 Y89.077 E15.02831
G1 X114.47 Y89.392 E15.04709
G1 X114.955 Y90.112 E15.08752
G1 X115.129 Y90.423 E15.10411
G1 X115.213 Y90.58 E15.1124
G1 X115.39 Y90.923 E15.13037
G1 X115.692 Y91.629 E15.16613
G1 X115.783 Y91.894 E15.17918
G1 X115.862 Y92.144 E15.19138
G1 X115.992 Y92.594 E15.21319
G1 X116.162 Y93.433 E15.25306
G1 X116.205 Y93.793 E15.26994
G1 X116.222 Y93.955 E15.27752
G1 X116.255 Y94.329 E15.29501
G1 X116.272 Y94.622 E15.30867
G1 X116.283 Y94.962 E15.32451
G1 X116.286 Y95.125 E15.3321
G1 X116.287 Y95.79 E15.36307
G1 X116.287 Y114.171 E16.21896
G1 X116.286 Y114.254 E16.22283
G1 X116.268 Y115.403 E16.27634
G1 X116.264 Y115.549 E16.28314
G1 X116.254 Y115.779 E16.29386
G1 X116.191 Y116.393 E16.3226
G1 X116.158 Y116.597 E16.33222
G1 X116.111 Y116.85 E16.34421
G1 X115.999 Y117.378 E16.36934
G1 X115.77 Y118.156 E16.4071
G1 X115.669 Y118.422 E16.42035
G1 X115.593 Y118.613 E16.42992
G1 X115.429 Y118.999 E16.44945
G1 X115.036 Y119.749 E16.48888
G1 X114.799 Y120.125 E16.50957
G1 X114.682 Y120.303 E16.51949
G1 X114.49 Y120.582 E16.53526
G1 X113.956 Y121.238 E16.57465
G1 X113.737 Y121.467 E16.58941
G1 X113.606 Y121.6 E16.5981
G1 X113.294 Y121.904 E16.61838
G1 X112.611 Y122.465 E16.65954
G1 X112.313 Y122.671 E16.67641
G1 X112.187 Y122.756 E16.68348
G1 X111.876 Y122.958 E16.70075
G1 X111.136 Y123.359 E16.73994
G1 X110.824 Y123.497 E16.75583
G1 X110.651 Y123.569 E16.76455
G1 X110.279 Y123.718 E16.78321
G1 X109.478 Y123.967 E16.82227
G1 X109.159 Y124.039 E16.8375
G1 X108.954 Y124.082 E16.84725
G1 X108.536 Y124.159 E16.86705
G1 X107.704 Y124.245 E16.90599
G1 X107.111 Y124.259 E16.93361
G1 X107.008 Y124.26 E16.93841
G1 X103.602 Y124.274 E17.09701
G1 X103.527 Y124.274 E17.1005
G1 X102.824 Y124.267 E17.13324
G1 X102.677 Y124.263 E17.14008
G1 X102.016 Y124.238 E17.17089
G1 X101.918 Y124.234 E17.17545
G1 X101.078 Y124.187 E17.21463
G1 X98.412 Y124.112 E17.33882
G1 X95.739 Y124.112 E17.46328
G1 X93.02 Y124.19 E17.58994
G1 X91.674 Y124.247 E17.65267
G1 X91.54 Y124.251 E17.65892
G1 X91.077 Y124.259 E17.68048
G1 X91.008 Y124.26 E17.68369
G1 X87.602 Y124.274 E17.84229
G1 X87.528 Y124.274 E17.84574
G1 X86.916 Y124.268 E17.87424
G1 X86.594 Y124.255 E17.88924
G1 X85.96 Y124.21 E17.91884
G1 X85.809 Y124.197 E17.9259
G1 X85.579 Y124.174 E17.93666
G1 X84.668 Y124.001 E17.97984
G1 X84.13 Y123.849 E18.00587
G1 X83.963 Y123.799 E18.01399
G1 X83.759 Y123.734 E18.02396
G1 X82.965 Y123.407 E18.06394
G1 X82.651 Y123.247 E18.08035
G1 X82.488 Y123.161 E18.08893
G1 X82.138 Y122.967 E18.10757
G1 X81.424 Y122.491 E18.14752
G1 X81.133 Y122.261 E18.16479
G1 X81.004 Y122.156 E18.17254
G1 X80.73 Y121.925 E18.18923
G1 X80.138 Y121.34 E18.22798
G1 X79.903 Y121.068 E18.24472
G1 X79.774 Y120.913 E18.25411
G1 X79.523 Y120.599 E18.27283
G1 X79.038 Y119.878 E18.31329
G1 X78.867 Y119.572 E18.32961
G1 X78.775 Y119.4 E18.3387
G1 X78.595 Y119.048 E18.3571
G1 X78.291 Y118.326 E18.39358
G1 X78.206 Y118.073 E18.40601
G1 X78.142 Y117.868 E18.41601
G1 X78.01 Y117.415 E18.43798
G1 X77.833 Y116.54 E18.47955
