(1001)
(T1  D=0.125 CR=0. - ZMIN=-0.1806 - FLAT END MILL)
G90 G94 G91.1 G40 G49 G17
G20
G28 G91 Z0.
G90

(2D CONTOUR1)
M5
M9
T1 M6
S13000 M3
G54
M9
G0 X0.4516 Y-0.1155
G43 Z1.7007 H1
Z0.1969
G1 Z0.0394 F11.8
Z-0.1681
G18 G2 X0.4641 Z-0.1806 I0.0125 K0.
G1 X0.4766
G17 G3 X0.4891 Y-0.103 I0. J0.0125
X0.1542 Y0.3251 I-0.441 J0.
G2 X0.1067 Y0.3858 I0.015 J0.0607
G1 Y0.6005
G2 X0.1086 Y0.616 I0.0625 J0.
G1 X-0.0124
G2 X-0.0104 Y0.6005 I-0.0605 J-0.0155
G1 Y0.3858
G2 X-0.0579 Y0.3251 I-0.0625 J0.
G3 X0.1542 Y-0.531 I0.106 J-0.4281
X0.4891 Y-0.103 I-0.106 J0.4281
X0.4766 Y-0.0905 I-0.0125 J0.
G1 X0.4641
G18 G3 X0.4516 Z-0.1681 I0. K0.0125
G0 Z1.7007
G17

M9
G28 G91 Z0.
G28 X0. Y0.
M30
