;FLAVOR:Marlin
;TIME:1630
;Filament used: 1.40124m
;Layer height: 0.2
;Generated with Cura_SteamEngine 3.3.1
M190 S60
M104 S200
M109 S200
M82 ;absolute extrusion mode
G21 ;metric values
G90 ;absolute positioning
M82 ;set extruder to absolute mode
M107 ;start with the fan off
G28 X0 Y0 ;move X/Y to min endstops
G28 Z0 ;move Z to min endstops
G1 Z15.0 F100 ;move the platform down 15mm
G92 E0 ;zero the extruded length
G1 F200 E3 ;extrude 3mm of feed stock
G92 E0 ;zero the extruded length again
G1 F100
M117 Printing...
G5
G92 E0
G1 F3600 E-6
;LAYER_COUNT:145
;LAYER:0
M106 S255
M204 S3000
M205 X10 Y10
G0 F3000 X91.839 Y92.904 Z0.2
M204 S1800
M205 X8 Y8
;TYPE:SKIRT
G1 F3600 E0
G1 F2400 X92.334 Y92.42 E0.02303
G1 X92.882 Y91.996 E0.04607
G1 X93.474 Y91.638 E0.06908
G1 X94.105 Y91.351 E0.09214
G1 X94.764 Y91.138 E0.11517
G1 X95.443 Y91.003 E0.1382
G1 X96.277 Y90.945 E0.166
G1 X113.731 Y90.955 E0.74653
G1 X114.423 Y90.995 E0.76958
G1 X115.105 Y91.115 E0.79261
G1 X115.769 Y91.313 E0.81566
G1 X116.405 Y91.585 E0.83867
G1 X117.006 Y91.93 E0.86171
G1 X117.563 Y92.341 E0.88474
G1 X118.069 Y92.814 E0.90778
G1 X118.518 Y93.341 E0.9308
G1 X118.902 Y93.917 E0.95383
G1 X119.218 Y94.534 E0.97688
G1 X119.511 Y95.355 E1.00588
G1 X120.25 Y98.025 E1.09802
G1 X121.797 Y102.865 E1.26702
G1 X121.97 Y103.536 E1.29007
G1 X122.037 Y103.955 E1.30418
G1 X122.145 Y104.828 E1.33344
G1 X122.19 Y105.519 E1.35647
G1 X122.131 Y106.401 E1.38587
G1 X122.066 Y106.863 E1.40139
G1 X121.931 Y107.542 E1.42442
G1 X121.714 Y108.209 E1.44774
G1 X121.452 Y108.88 E1.4717
G1 X121.211 Y109.419 E1.49134
G1 X119.074 Y113.619 E1.64808
G1 X118.724 Y114.217 E1.67112
G1 X118.309 Y114.771 E1.69414
G1 X117.832 Y115.273 E1.71718
G1 X117.3 Y115.717 E1.74022
G1 X116.721 Y116.097 E1.76326
G1 X116.102 Y116.407 E1.78628
G1 X115.77 Y116.539 E1.79817
G1 X112.93 Y117.568 E1.89864
G1 X112.266 Y117.766 E1.92168
G1 X111.391 Y117.906 E1.95115
G1 X110.705 Y117.964 E1.97405
G1 X110.191 Y117.985 E1.99116
G1 X99.385 Y117.969 E2.35057
G1 X98.694 Y117.928 E2.37359
G1 X98.012 Y117.808 E2.39663
G1 X97.445 Y117.644 E2.41626
G1 X94.324 Y116.572 E2.52602
G1 X93.683 Y116.309 E2.54906
G1 X93.077 Y115.975 E2.57207
G1 X92.513 Y115.573 E2.59511
G1 X91.999 Y115.108 E2.61816
G1 X91.542 Y114.588 E2.64119
G1 X91.149 Y114.018 E2.66422
G1 X90.924 Y113.616 E2.67954
G1 X88.927 Y109.687 E2.82613
G1 X88.665 Y109.094 E2.84769
G1 X88.219 Y107.917 E2.88955
G1 X88.012 Y107.256 E2.91259
G1 X87.882 Y106.576 E2.93562
G1 X87.833 Y105.613 E2.96769
G1 X87.858 Y104.769 E2.99577
G1 X87.918 Y104.079 E3.01881
G1 X88.138 Y103.127 E3.05131
G1 X89.46 Y98.974 E3.19627
G1 X90.503 Y95.304 E3.32317
G1 X90.73 Y94.65 E3.34619
G1 X91.031 Y94.027 E3.3692
G1 X91.403 Y93.442 E3.39226
G1 X91.839 Y92.904 E3.41529
M204 S3000
M205 X10 Y10
G0 F3000 X92.196 Y93.107
M204 S1800
M205 X8 Y8
G1 F2400 X92.683 Y92.648 E3.43755
G1 X93.221 Y92.25 E3.45981
G1 X93.803 Y91.92 E3.48206
G1 X94.42 Y91.661 E3.50432
G1 X95.063 Y91.478 E3.52655
G1 X95.724 Y91.372 E3.54882
G1 X96.277 Y91.345 E3.56723
G1 X113.731 Y91.355 E4.14776
G1 X114.399 Y91.395 E4.17002
G1 X115.057 Y91.515 E4.19226
G1 X115.697 Y91.712 E4.21453
G1 X116.308 Y91.985 E4.23679
G1 X116.882 Y92.328 E4.25903
G1 X117.411 Y92.737 E4.28127
G1 X117.888 Y93.206 E4.30352
G1 X118.305 Y93.729 E4.32577
G1 X118.658 Y94.298 E4.34804
G1 X118.939 Y94.905 E4.37029
G1 X119.125 Y95.462 E4.38982
G1 X119.862 Y98.127 E4.48178
G1 X121.416 Y102.987 E4.65149
G1 X121.581 Y103.635 E4.67373
G1 X121.64 Y104.004 E4.68616
G1 X121.748 Y104.877 E4.71542
G1 X121.79 Y105.545 E4.73768
G1 X121.735 Y106.345 E4.76435
G1 X121.67 Y106.807 E4.77987
G1 X121.538 Y107.463 E4.80212
G1 X121.341 Y108.064 E4.82316
G1 X121.079 Y108.735 E4.84712
G1 X120.854 Y109.238 E4.86544
G1 X118.717 Y113.438 E5.02218
G1 X118.379 Y114.015 E5.04442
G1 X117.974 Y114.547 E5.06666
G1 X117.508 Y115.028 E5.08893
G1 X116.989 Y115.449 E5.11116
G1 X116.423 Y115.806 E5.13342
G1 X115.634 Y116.163 E5.16222
G1 X112.794 Y117.192 E5.26269
G1 X112.152 Y117.382 E5.28496
G1 X111.358 Y117.507 E5.31169
G1 X110.672 Y117.565 E5.33459
G1 X110.192 Y117.585 E5.35057
G1 X99.386 Y117.569 E5.70998
G1 X98.718 Y117.528 E5.73224
G1 X98.06 Y117.408 E5.75448
G1 X97.575 Y117.265 E5.7713
G1 X94.454 Y116.193 E5.88106
G1 X93.835 Y115.939 E5.90331
G1 X93.251 Y115.612 E5.92557
G1 X92.711 Y115.218 E5.94781
G1 X92.221 Y114.762 E5.97007
G1 X91.789 Y114.251 E5.99233
G1 X91.281 Y113.434 E6.02432
G1 X89.284 Y109.505 E6.17091
G1 X89.039 Y108.952 E6.19103
G1 X88.593 Y107.775 E6.2329
G1 X88.394 Y107.137 E6.25512
G1 X88.272 Y106.479 E6.27738
G1 X88.232 Y105.625 E6.30582
G1 X88.257 Y104.781 E6.3339
G1 X88.317 Y104.115 E6.35614
G1 X88.519 Y103.249 E6.38572
G1 X89.837 Y99.108 E6.53026
G1 X90.887 Y95.414 E6.65799
G1 X91.108 Y94.782 E6.68025
G1 X91.403 Y94.182 E6.70249
G1 X91.768 Y93.621 E6.72475
G1 X92.196 Y93.107 E6.747
M204 S3000
M205 X10 Y10
G0 F3000 X92.552 Y93.313
M204 S1800
M205 X8 Y8
G1 F2400 X93.03 Y92.881 E6.76843
G1 X93.558 Y92.511 E6.78987
G1 X94.128 Y92.209 E6.81133
G1 X94.73 Y91.979 E6.83276
G1 X95.357 Y91.827 E6.85422
G1 X96.277 Y91.745 E6.88494
G1 X113.731 Y91.755 E7.46546
G1 X114.374 Y91.795 E7.48689
G1 X115.008 Y91.915 E7.50835
G1 X115.622 Y92.112 E7.5298
G1 X116.206 Y92.384 E7.55123
G1 X116.753 Y92.725 E7.57267
G1 X117.253 Y93.132 E7.59411
G1 X117.699 Y93.598 E7.61556
G1 X118.084 Y94.115 E7.637
G1 X118.402 Y94.676 E7.65845
G1 X118.74 Y95.568 E7.69018
G1 X119.484 Y98.259 E7.78304
G1 X121.035 Y103.109 E7.9524
G1 X121.193 Y103.734 E7.97384
G1 X121.243 Y104.054 E7.98461
G1 X121.351 Y104.927 E8.01387
G1 X121.39 Y105.57 E8.03529
G1 X121.339 Y106.289 E8.05927
G1 X121.274 Y106.751 E8.07479
G1 X121.145 Y107.383 E8.09624
G1 X120.969 Y107.918 E8.11497
G1 X120.707 Y108.589 E8.13893
G1 X120.498 Y109.056 E8.15595
G1 X118.361 Y113.256 E8.31268
G1 X118.033 Y113.811 E8.33412
G1 X117.64 Y114.322 E8.35557
G1 X117.186 Y114.78 E8.37701
G1 X116.679 Y115.178 E8.39845
G1 X116.127 Y115.511 E8.41989
G1 X115.497 Y115.787 E8.44277
G1 X112.657 Y116.816 E8.54324
G1 X112.039 Y116.998 E8.56467
G1 X111.324 Y117.109 E8.58873
G1 X110.638 Y117.167 E8.61163
G1 X110.192 Y117.185 E8.62648
G1 X99.386 Y117.169 E8.98589
G1 X98.743 Y117.128 E9.00732
G1 X98.11 Y117.008 E9.02874
G1 X97.705 Y116.887 E9.0428
G1 X94.584 Y115.815 E9.15256
G1 X93.988 Y115.568 E9.17402
G1 X93.428 Y115.25 E9.19544
G1 X92.911 Y114.864 E9.2169
G1 X92.446 Y114.418 E9.23833
G1 X92.04 Y113.917 E9.25977
G1 X91.637 Y113.253 E9.28561
G1 X89.64 Y109.324 E9.4322
G1 X89.413 Y108.811 E9.45086
G1 X88.967 Y107.634 E9.49272
G1 X88.777 Y107.018 E9.51416
G1 X88.664 Y106.383 E9.53561
G1 X88.632 Y105.637 E9.56045
G1 X88.657 Y104.793 E9.58853
G1 X88.716 Y104.151 E9.60998
G1 X88.9 Y103.37 E9.63666
G1 X90.223 Y99.211 E9.78182
G1 X91.272 Y95.523 E9.90935
G1 X91.487 Y94.915 E9.9308
G1 X91.775 Y94.338 E9.95225
G1 X92.132 Y93.802 E9.97367
G1 X92.552 Y93.313 E9.99511
M204 S3000
M205 X10 Y10
G0 F3000 X95.366 Y103.307
M204 S1800
M205 X8 Y8
;TYPE:SUPPORT
G1 F1500 X95.366 Y107.581 E10.13726
G1 X95.248 Y107.526 E10.14159
G1 X95.024 Y107.395 E10.15022
G1 X94.866 Y107.285 E10.15663
G1 X94.656 Y107.091 E10.16614
G1 X94.513 Y106.919 E10.17357
G1 X94.295 Y106.585 E10.18684
G1 X94.136 Y106.246 E10.19929
G1 X94.035 Y105.854 E10.21276
G1 X93.997 Y105.625 E10.22048
G1 X93.992 Y105.435 E10.2268
G1 X94 Y105.166 E10.23575
G1 X94.138 Y104.631 E10.25413
G1 X94.374 Y104.15 E10.27195
G1 X94.461 Y104.032 E10.27682
G1 X94.681 Y103.783 E10.28788
G1 X95.174 Y103.394 E10.30876
G1 X95.366 Y103.307 E10.31577
M204 S3000
M205 X10 Y10
G1 F3600 E4.31577
G0 F3000 X95.605 Y96.779
G0 X96.109 Y96.275
G0 X113.891 Y96.275
G0 X114.395 Y96.779
G0 X114.395 Y111.063
G0 X113.891 Y111.567
G0 X104.665 Y111.786
M204 S1800
M205 X8 Y8
G1 F3600 E10.31577
G1 F1500 X105 Y111.45 E10.33155
G1 X105.335 Y111.786 E10.34733
G1 X104.665 Y111.786 E10.36962
M204 S3000
M205 X10 Y10
G1 F3600 E4.36962
G0 F3000 X96.109 Y111.567
G0 X95.605 Y111.063
G0 X95.605 Y96.779
G0 X96.109 Y96.275
G0 X113.891 Y96.275
G0 X114.395 Y96.779
G0 X114.634 Y107.589
M204 S1800
M205 X8 Y8
G1 F3600 E10.36962
G1 F1500 X114.634 Y103.3 E10.51227
G1 X114.862 Y103.42 E10.52084
G1 X115.307 Y103.765 E10.53957
G1 X115.509 Y103.987 E10.54955
G1 X115.653 Y104.204 E10.55821
G1 X115.769 Y104.433 E10.56675
G1 X115.865 Y104.642 E10.5744
G1 X115.972 Y105.022 E10.58753
G1 X115.993 Y105.28 E10.59614
G1 X116.002 Y105.47 E10.60247
G1 X115.995 Y105.661 E10.60883
G1 X115.96 Y105.883 E10.6163
G1 X115.876 Y106.232 E10.62824
G1 X115.701 Y106.598 E10.64173
G1 X115.602 Y106.758 E10.64799
G1 X115.457 Y106.948 E10.65594
G1 X115.284 Y107.152 E10.66484
G1 X115.119 Y107.296 E10.67212
G1 X115.018 Y107.37 E10.67628
G1 X114.754 Y107.532 E10.68659
G1 X114.634 Y107.589 E10.69101
M204 S3000
M205 X10 Y10
G1 F3600 E4.69101
G0 F3000 X114.395 Y111.063
G0 X113.891 Y111.567
G0 X103.789 Y111.571
G0 X103.761 Y110.278
G0 X103.389 Y109.906
M204 S1800
M205 X8 Y8
;TYPE:WALL-INNER
G1 F3600 E10.69101
G1 F1500 X97.266 Y109.906 E10.89466
G1 X97.266 Y97.936 E11.29278
G1 X103.389 Y97.936 E11.49643
G1 X103.389 Y109.906 E11.89456
M204 S3000
M205 X10 Y10
G0 F3000 X103.789 Y110.306
M204 S1800
M205 X8 Y8
G1 F1500 X96.866 Y110.306 E12.12482
G1 X96.866 Y97.536 E12.54955
G1 X103.789 Y97.536 E12.77981
G1 X103.789 Y110.306 E13.20454
M204 S3000
M205 X10 Y10
G0 F3000 X104.189 Y110.706
M204 S1800
M205 X8 Y8
;TYPE:WALL-OUTER
G1 F1500 X96.466 Y110.706 E13.46141
G1 X96.466 Y97.136 E13.91275
G1 X104.189 Y97.136 E14.16962
G1 X104.189 Y110.706 E14.62096
M204 S3000
M205 X10 Y10
G0 F3000 X103.989 Y110.706
G0 X103.719 Y110.236
G0 X102.999 Y109.516
M204 S1800
M205 X8 Y8
;TYPE:SKIN
G1 F1500 X97.656 Y109.516 E14.79867
G1 X97.656 Y98.326 E15.17085
G1 X102.999 Y98.326 E15.34856
G1 X102.999 Y109.516 E15.72074
M204 S3000
M205 X10 Y10
G0 F3000 X98.021 Y109.334
M204 S1800
M205 X8 Y8
G1 F1500 X97.836 Y109.149 E15.72944
M204 S3000
M205 X10 Y10
G0 F3000 X97.836 Y108.584
M204 S1800
M205 X8 Y8
G1 F1500 X98.586 Y109.334 E15.76472
G1 X98.656 Y109.404
M204 S3000
M205 X10 Y10
G0 F3000 X99.152 Y109.334
M204 S1800
M205 X8 Y8
G1 F1500 X97.836 Y108.018 E15.82662
G1 X97.766 Y107.948
M204 S3000
M205 X10 Y10
G0 F3000 X97.836 Y107.452
M204 S1800
M205 X8 Y8
G1 F1500 X99.718 Y109.334 E15.91514
G1 X99.788 Y109.404
M204 S3000
M205 X10 Y10
G0 F3000 X100.284 Y109.334
M204 S1800
M205 X8 Y8
G1 F1500 X97.836 Y106.886 E16.03029
G1 X97.766 Y106.816
M204 S3000
M205 X10 Y10
G0 F3000 X97.836 Y106.321
M204 S1800
M205 X8 Y8
G1 F1500 X100.849 Y109.334 E16.17201
G1 X100.919 Y109.404
M204 S3000
M205 X10 Y10
G0 F3000 X101.415 Y109.334
M204 S1800
M205 X8 Y8
G1 F1500 X97.836 Y105.755 E16.34035
G1 X97.766 Y105.685
M204 S3000
M205 X10 Y10
G0 F3000 X97.836 Y105.189
M204 S1800
M205 X8 Y8
G1 F1500 X101.981 Y109.334 E16.53532
G1 X102.051 Y109.404
M204 S3000
M205 X10 Y10
G0 F3000 X102.546 Y109.334
M204 S1800
M205 X8 Y8
G1 F1500 X97.836 Y104.624 E16.75687
G1 X97.766 Y104.554
M204 S3000
M205 X10 Y10
G0 F3000 X97.836 Y104.058
M204 S1800
M205 X8 Y8
G1 F1500 X102.818 Y109.041 E16.99123
G1 X102.888 Y109.111
M204 S3000
M205 X10 Y10
G0 F3000 X102.818 Y108.475
M204 S1800
M205 X8 Y8
G1 F1500 X97.836 Y103.492 E17.22559
G1 X97.766 Y103.422
M204 S3000
M205 X10 Y10
G0 F3000 X97.836 Y102.927
M204 S1800
M205 X8 Y8
G1 F1500 X102.818 Y107.91 E17.45995
G1 X102.888 Y107.98
M204 S3000
M205 X10 Y10
G0 F3000 X102.818 Y107.344
M204 S1800
M205 X8 Y8
G1 F1500 X97.836 Y102.361 E17.69431
G1 X97.766 Y102.291
M204 S3000
M205 X10 Y10
G0 F3000 X97.836 Y101.795
M204 S1800
M205 X8 Y8
G1 F1500 X102.818 Y106.778 E17.92867
G1 X102.888 Y106.848
M204 S3000
M205 X10 Y10
G0 F3000 X102.818 Y106.213
M204 S1800
M205 X8 Y8
G1 F1500 X97.836 Y101.23 E18.16303
G1 X97.766 Y101.16
M204 S3000
M205 X10 Y10
G0 F3000 X97.836 Y100.664
M204 S1800
M205 X8 Y8
G1 F1500 X102.818 Y105.647 E18.3974
G1 X102.888 Y105.717
M204 S3000
M205 X10 Y10
G0 F3000 X102.818 Y105.081
M204 S1800
M205 X8 Y8
G1 F1500 X97.836 Y100.098 E18.63176
G1 X97.766 Y100.028
M204 S3000
M205 X10 Y10
G0 F3000 X97.836 Y99.533
M204 S1800
M205 X8 Y8
G1 F1500 X102.818 Y104.516 E18.86612
G1 X102.888 Y104.586
M204 S3000
M205 X10 Y10
G0 F3000 X102.818 Y103.95
M204 S1800
M205 X8 Y8
G1 F1500 X97.836 Y98.967 E19.10048
G1 X97.766 Y98.897
M204 S3000
M205 X10 Y10
G0 F3000 X97.939 Y98.505
M204 S1800
M205 X8 Y8
G1 F1500 X102.818 Y103.384 E19.32997
G1 X102.888 Y103.454
M204 S3000
M205 X10 Y10
G0 F3000 X102.818 Y102.818
M204 S1800
M205 X8 Y8
G1 F1500 X98.505 Y98.505 E19.53284
G1 X98.435 Y98.435
M204 S3000
M205 X10 Y10
G0 F3000 X99.071 Y98.505
M204 S1800
M205 X8 Y8
G1 F1500 X102.818 Y102.253 E19.70912
G1 X102.888 Y102.323
M204 S3000
M205 X10 Y10
G0 F3000 X102.818 Y101.687
M204 S1800
M205 X8 Y8
G1 F1500 X99.637 Y98.505 E19.85876
G1 X99.567 Y98.435
M204 S3000
M205 X10 Y10
G0 F3000 X100.202 Y98.505
M204 S1800
M205 X8 Y8
G1 F1500 X102.818 Y101.121 E19.98181
G1 X102.888 Y101.191
M204 S3000
M205 X10 Y10
G0 F3000 X102.818 Y100.556
M204 S1800
M205 X8 Y8
G1 F1500 X100.769 Y98.506 E20.07821
G1 X100.699 Y98.436
M204 S3000
M205 X10 Y10
G0 F3000 X101.334 Y98.506
M204 S1800
M205 X8 Y8
G1 F1500 X102.818 Y99.99 E20.14802
G1 X102.888 Y100.06
M204 S3000
M205 X10 Y10
G0 F3000 X102.818 Y99.424
M204 S1800
M205 X8 Y8
G1 F1500 X101.9 Y98.506 E20.1912
G1 X101.83 Y98.436
M204 S3000
M205 X10 Y10
G0 F3000 X102.466 Y98.506
M204 S1800
M205 X8 Y8
G1 F1500 X102.818 Y98.859 E20.20778
M204 S3000
M205 X10 Y10
G1 F3600 E14.20778
G0 F3000 X103.769 Y109.906
G0 X106.231 Y109.906
G0 X112.734 Y109.906
M204 S1800
M205 X8 Y8
;TYPE:WALL-INNER
G1 F3600 E20.20778
G1 F1500 X106.611 Y109.906 E20.41143
G1 X106.611 Y97.936 E20.80955
G1 X112.734 Y97.936 E21.0132
G1 X112.734 Y109.906 E21.41133
M204 S3000
M205 X10 Y10
G0 F3000 X113.134 Y110.306
M204 S1800
M205 X8 Y8
G1 F1500 X106.211 Y110.306 E21.64159
G1 X106.211 Y97.536 E22.06632
G1 X113.134 Y97.536 E22.29658
G1 X113.134 Y110.306 E22.72131
M204 S3000
M205 X10 Y10
G0 F3000 X113.534 Y110.706
M204 S1800
M205 X8 Y8
;TYPE:WALL-OUTER
G1 F1500 X105.811 Y110.706 E22.97818
G1 X105.811 Y97.136 E23.42952
G1 X113.534 Y97.136 E23.68639
G1 X113.534 Y110.706 E24.13773
M204 S3000
M205 X10 Y10
G0 F3000 X113.334 Y110.706
G0 X113.064 Y110.236
G0 X112.344 Y109.516
M204 S1800
M205 X8 Y8
;TYPE:SKIN
G1 F1500 X107.001 Y109.516 E24.31544
G1 X107.001 Y98.326 E24.68762
G1 X112.344 Y98.326 E24.86533
G1 X112.344 Y109.516 E25.23751
M204 S3000
M205 X10 Y10
G0 F3000 X107.637 Y109.334
M204 S1800
M205 X8 Y8
G1 F1500 X107.18 Y108.877 E25.259
M204 S3000
M205 X10 Y10
G0 F3000 X107.18 Y108.311
M204 S1800
M205 X8 Y8
G1 F1500 X108.203 Y109.334 E25.30712
G1 X108.273 Y109.404
M204 S3000
M205 X10 Y10
G0 F3000 X108.769 Y109.334
M204 S1800
M205 X8 Y8
G1 F1500 X107.18 Y107.746 E25.38184
G1 X107.11 Y107.676
M204 S3000
M205 X10 Y10
G0 F3000 X107.18 Y107.18
M204 S1800
M205 X8 Y8
G1 F1500 X109.334 Y109.334 E25.48316
G1 X109.404 Y109.404
M204 S3000
M205 X10 Y10
G0 F3000 X109.901 Y109.335
M204 S1800
M205 X8 Y8
G1 F1500 X107.18 Y106.614 E25.61115
G1 X107.11 Y106.544
M204 S3000
M205 X10 Y10
G0 F3000 X107.18 Y106.049
M204 S1800
M205 X8 Y8
G1 F1500 X110.467 Y109.335 E25.76573
G1 X110.537 Y109.405
M204 S3000
M205 X10 Y10
G0 F3000 X111.032 Y109.335
M204 S1800
M205 X8 Y8
G1 F1500 X107.18 Y105.483 E25.94692
G1 X107.11 Y105.413
M204 S3000
M205 X10 Y10
G0 F3000 X107.18 Y104.917
M204 S1800
M205 X8 Y8
G1 F1500 X111.598 Y109.335 E26.15473
G1 X111.668 Y109.405
M204 S3000
M205 X10 Y10
G0 F3000 X112.163 Y109.334
M204 S1800
M205 X8 Y8
G1 F1500 X107.18 Y104.351 E26.38911
G1 X107.11 Y104.281
M204 S3000
M205 X10 Y10
G0 F3000 X107.18 Y103.786
M204 S1800
M205 X8 Y8
G1 F1500 X112.163 Y108.769 E26.6235
G1 X112.233 Y108.839
M204 S3000
M205 X10 Y10
G0 F3000 X112.163 Y108.203
M204 S1800
M205 X8 Y8
G1 F1500 X107.18 Y103.22 E26.85788
G1 X107.11 Y103.15
M204 S3000
M205 X10 Y10
G0 F3000 X107.18 Y102.654
M204 S1800
M205 X8 Y8
G1 F1500 X112.163 Y107.637 E27.09227
G1 X112.233 Y107.707
M204 S3000
M205 X10 Y10
G0 F3000 X112.163 Y107.072
M204 S1800
M205 X8 Y8
G1 F1500 X107.18 Y102.089 E27.32665
G1 X107.11 Y102.019
M204 S3000
M205 X10 Y10
G0 F3000 X107.18 Y101.523
M204 S1800
M205 X8 Y8
G1 F1500 X112.163 Y106.506 E27.56104
G1 X112.233 Y106.576
M204 S3000
M205 X10 Y10
